assets/icons/icon_new_order.svg

<svg fill="none" height="24" viewBox="0 0 24 24" width="24" xmlns="http://www.w3.org/2000/svg"><g stroke="#003049" stroke-linecap="round" stroke-linejoin="round" stroke-width="1.5"><path d="m7.125 9.75h9.75"/><path d="m7.125 12.75h9.75"/><path d="m3 19.5v-14.25c0-.19891.07902-.38968.21967-.53033s.33142-.21967.53033-.21967h16.5c.1989 0 .3897.07902.5303.21967.1407.14065.2197.33142.2197.53033v14.25l-3-1.5-3 1.5-3-1.5-3 1.5-3-1.5z"/></g></svg>

<svg width="24" height="24" viewBox="0 0 24 24" fill="none" xmlns="http://www.w3.org/2000/svg">
<path d="M7.125 9.75H16.875" stroke="#003049" stroke-width="1.5" stroke-linecap="round" stroke-linejoin="round"/>
<path d="M7.125 12.75H16.875" stroke="#003049" stroke-width="1.5" stroke-linecap="round" stroke-linejoin="round"/>
<path d="M3 19.5V5.25C3 5.05109 3.07902 4.86032 3.21967 4.71967C3.36032 4.57902 3.55109 4.5 3.75 4.5H20.25C20.4489 4.5 20.6397 4.57902 20.7803 4.71967C20.921 4.86032 21 5.05109 21 5.25V19.5L18 18L15 19.5L12 18L9 19.5L6 18L3 19.5Z" stroke="#003049" stroke-width="1.5" stroke-linecap="round" stroke-linejoin="round"/>
</svg>
